X: 100359
T: Jerry O'Brien's 
C: BB
R: reel
Q: 1/8=350
M: 4/4
L: 1/8
K: D
DB,|"D"A,DDE D3 B,|"Bm"A,B,DF "D"Addc|"Bm"BAFA "D"dcdB|\
"F#m"AF (3FEF "Em6"GECB,|
"D"A,DDE D3 B,|"Bm"A,B,DF "D"Addc|"Bm"BABc "D"dAFA|"A7"GECE "D"D2 :|
Bc |"D"dffg f3 g|"F#m"a2 fa "Bm"bafe|"G"dBBA B3 c|"D"dfdB "A"A2Bc|
"D"dffg f3 g|"F#m"a2 fa "Bm"bafe|"G"dB (3BAB "Em7"efdB|\
"A7"AGEC "D"D2 :|
